X:396
T:Reel 396
M:4/4
K:Dmaj
L:1/8
A>B (3cBA B>E (3EDE |FGA (3FGA B2c2| (3FGA Bd cBFA| (3Bcd AG FDD2:| (3AGF dB AGFD| (3FED A>D  (3FED A2| (3Bcd AF GBAG| (3EFE =cA G2 (3ABc |d2cd AGFA|DFAB A2d2| (3cBA BA GFFA| (3Bcd AF G2F2|
